rospo-icon-theme-classic-common/24x24/places/folder-violet-games.svg

<svg height="24" width="24" xmlns="http://www.w3.org/2000/svg"><rect height="12" opacity=".2" rx="1" width="20" x="2" y="9.5"/><path d="m2 17c0 .554.446 1 1 1h18c .554 0 1-.446 1-1v-11c0-.554-.446-1-1-1h-10v-1c0-.554-.446-1-1-1h-7c-.554 0-1 .446-1 1" fill="#8b58c5"/><rect height="12" opacity=".2" rx="1" width="20" x="2" y="8.5"/><rect fill="#e4e4e4" height="8" rx="1" width="16" x="4" y="7"/><rect fill="#a674de" height="12" rx="1" width="20" x="2" y="9"/><path d="m3 3c-.554 0-1 .446-1 1v .5c0-.554.446-1 1-1h7c .554 0 1 .446 1 1v-.5c0-.554-.446-1-1-1zm8 2v .5h10c .554 0 1 .446 1 1v-.5c0-.554-.446-1-1-1z" fill="#fff" opacity=".1"/><path d="m14.117 12c-.12.001-.23.039-.334.113-.263.189-.814.39-1.783.391-.97.001-1.52-.202-1.783-.391-.104-.074-.203-.11-.3244-.109-.1212 0-.2599.033-.4024.109-.5188.274-.9964 1.17-1.2558 2.332-.2212.988-.3018 2.338-.1699 2.881.115.467.3139.674.666.674.523-.009 1.1791-.591 1.5955-1.377.302-.435 1-.633 1.674-.611.674-.024 1.372.176 1.674.611.417.785 1.073 1.368 1.596 1.377.352 0 .551-.207.666-.674.131-.543.051-1.893-.17-2.881-.259-1.162-.736-2.058-1.254-2.332-.143-.076-.274-.114-.395-.113zm-4.117 1a1 1 0 0 1 1 1 1 1 0 0 1 -1 1 1 1 0 0 1 -1-1 1 1 0 0 1 1-1zm3.5 0a .5001.49995 0 0 1  .5.5.5001.49995 0 0 1 -.5.5.5001.49995 0 0 1 -.5-.5.5001.49995 0 0 1  .5-.5zm1 1a .5001.49995 0 0 1  .5.5.5001.49995 0 0 1 -.5.5.5001.49995 0 0 1 -.5-.5.5001.49995 0 0 1  .5-.5z" fill="#3a284d"/></svg>

<svg xmlns="http://www.w3.org/2000/svg" width="24" height="24" version="1">
 <rect style="opacity:0.2" width="20" height="12" x="2" y="9.5" rx="1" ry="1"/>
 <path style="fill:#8b58c5" d="M 2,17 C 2,17.554 2.446,18 3,18 H 21 C 21.554,18 22,17.554 22,17 V 6 C 22,5.446 21.554,5 21,5 H 11 V 4 C 11,3.446 10.554,3 10,3 H 3 C 2.446,3 2,3.446 2,4"/>
 <rect style="opacity:0.2" width="20" height="12" x="2" y="8.5" rx="1" ry="1"/>
 <rect style="fill:#dcdcdc" width="16" height="8" x="4" y="7" rx="1" ry="1"/>
 <rect style="fill:#a674de" width="20" height="12" x="2" y="9" rx="1" ry="1"/>
 <path style="opacity:0.1;fill:#ffffff" d="M 3,3 C 2.446,3 2,3.446 2,4 V 4.5 C 2,3.946 2.446,3.5 3,3.5 H 10 C 10.554,3.5 11,3.946 11,4.5 V 4 C 11,3.446 10.554,3 10,3 Z M 11,5 V 5.5 H 21 C 21.554,5.5 22,5.946 22,6.5 V 6 C 22,5.446 21.554,5 21,5 Z"/>
 <path style="fill:#3a284d" d="M 14.117 12 C 13.997 12.001 13.887 12.039 13.783 12.113 C 13.52 12.302 12.969 12.503 12 12.504 C 11.03 12.505 10.48 12.302 10.217 12.113 C 10.113 12.039 10.014 12.003 9.8926 12.004 C 9.7714 12.004 9.6327 12.037 9.4902 12.113 C 8.9714 12.387 8.4938 13.283 8.2344 14.445 C 8.0132 15.433 7.9326 16.783 8.0645 17.326 C 8.1795 17.793 8.3784 18 8.7305 18 C 9.2535 17.991 9.9096 17.409 10.326 16.623 C 10.628 16.188 11.326 15.99 12 16.012 C 12.674 15.988 13.372 16.188 13.674 16.623 C 14.091 17.408 14.747 17.991 15.27 18 C 15.622 18 15.821 17.793 15.936 17.326 C 16.067 16.783 15.987 15.433 15.766 14.445 C 15.507 13.283 15.03 12.387 14.512 12.113 C 14.369 12.037 14.238 11.999 14.117 12 z M 10 13 A 1 1 0 0 1 11 14 A 1 1 0 0 1 10 15 A 1 1 0 0 1 9 14 A 1 1 0 0 1 10 13 z M 13.5 13 A 0.5001 0.49995 0 0 1 14 13.5 A 0.5001 0.49995 0 0 1 13.5 14 A 0.5001 0.49995 0 0 1 13 13.5 A 0.5001 0.49995 0 0 1 13.5 13 z M 14.5 14 A 0.5001 0.49995 0 0 1 15 14.5 A 0.5001 0.49995 0 0 1 14.5 15 A 0.5001 0.49995 0 0 1 14 14.5 A 0.5001 0.49995 0 0 1 14.5 14 z"/>
</svg>
